X:7
T:The March of the Royal British Legion
T:Thirds
R:March
L:1/8
C:Unknown
M:6/8
K:D
[|: {e}A | {Gdc}d>{g}fa A>df | {a}g>f{g}e {Gdc}d2 {e}A | {gBd}B2 e {A}e>g{a}f | {gef}e2 B {gcd}c>B{G}A | 
{Gdc}d>{g}fa A>df | {a}g>f{g}e {Gdc}d2 {e}A | {gBd}B2 e {a}g>f{g}e | {gfg}f2 d {gdG}d2 :|] 
[|: {gf}g | a2 {AGAG}A d3 | {g}B3 {G}A3 | {gBd}B2 e {g}B3 | {g}c2 d {e}A3 | 
(d3 d3) | {g}B3 {G}A3 | {g}e3 {g}B3 | {g}d3 {G}A3 :|] 
[|: f | {gAGAG}A2 f {g}A>df | {a}g>f{g}e {Gdc}d2 {e}A | {gBd}B2 e {A}e>g{a}f | {gef}e2 B {gcd}c>B{G}A | 
{gAGAG}A2 f {g}A>df | {a}g>f{g}e {Gdc}d2 {e}A | {gBd}B2 e {a}g>f{g}e | {gfg}f2 d {gdG}d2 :|] 
[|: {gf}g | {ag}a2 f {g}d3 | {g}d>cd {e}A3 | {g}(G3 G3) | {g}B2 {d}(c c3) | 
["1"  e2 {g}(d d3) | {g}d>cd {e}A3 | {g}e3 {g}B3 | {g}d>B{G}B {g}A3   ] :|] 
["2" {Gdc}d2 f {g}A>df | a2 {c}(d d3)  | {g}e3 {g}B3 | {g}d3 {G}A3  ] :|] 


